tools/download-figma-icons/icons/solid/connector-chademo.svg

<svg width="24" height="24" viewBox="0 0 24 24" fill="none" xmlns="http://www.w3.org/2000/svg">
<path fill-rule="evenodd" clip-rule="evenodd" d="M17.2496 15.7406C15.1797 15.7406 13.4997 14.0584 13.4997 11.9862C13.4997 9.91323 15.1797 8.23176 17.2496 8.23176C19.3196 8.23176 20.9996 9.91323 20.9996 11.9862C20.9996 14.0584 19.3196 15.7406 17.2496 15.7406ZM11.9998 20.2458C10.7548 20.2458 9.7498 19.2393 9.7498 17.9928C9.7498 16.7464 10.7548 15.7406 11.9998 15.7406C13.2447 15.7406 14.2497 16.7464 14.2497 17.9928C14.2497 19.2393 13.2447 20.2458 11.9998 20.2458ZM6.74986 15.7406C4.6799 15.7406 2.99994 14.0584 2.99994 11.9862C2.99994 9.91323 4.6799 8.23176 6.74986 8.23176C8.81982 8.23176 10.4998 9.91323 10.4998 11.9862C10.4998 14.0584 8.81982 15.7406 6.74986 15.7406ZM11.9998 3.72662C13.2447 3.72662 14.2497 4.7331 14.2497 5.97882C14.2497 7.2253 13.2447 8.23178 11.9998 8.23178C10.7548 8.23178 9.7498 7.2253 9.7498 5.97882C9.7498 4.7331 10.7548 3.72662 11.9998 3.72662ZM22.402 5.99369L22.852 4.65797C22.942 4.38722 22.8745 4.08648 22.672 3.88398L20.0921 1.30104C19.8896 1.09854 19.5971 1.03104 19.3196 1.12104L17.9771 1.57103C14.3397 -0.523677 9.6448 -0.523677 6.02238 1.57103L4.67241 1.12104C4.40241 1.03104 4.10242 1.09854 3.89992 1.30104L1.32747 3.88398C1.12498 4.08648 1.05748 4.38722 1.14748 4.65797L1.59747 6.00194C0.547489 7.8184 0 9.87636 0 11.9861C0 18.6084 5.38489 24.0001 11.9998 24.0001C18.6146 24.0001 23.9995 18.6084 23.9995 11.9861C23.9995 9.87636 23.4445 7.8109 22.402 5.99369ZM6.74986 14.2388C5.50864 14.2388 4.49991 13.2294 4.49991 11.9866C4.49991 10.7432 5.50864 9.73369 6.74986 9.73369C7.99109 9.73369 8.99982 10.7432 8.99982 11.9866C8.99982 13.2294 7.99109 14.2388 6.74986 14.2388ZM14.9997 11.9866C14.9997 13.2294 16.0084 14.2388 17.2496 14.2388C18.4909 14.2388 19.4996 13.2294 19.4996 11.9866C19.4996 10.7432 18.4909 9.73369 17.2496 9.73369C16.0084 9.73369 14.9997 10.7432 14.9997 11.9866ZM12.53 5.97914L13.0145 5.4939C13.1615 5.3469 13.1615 5.1099 13.0145 4.96291C12.8682 4.81666 12.6312 4.81666 12.4842 4.96291L11.9998 5.44815L11.5145 4.96291C11.3683 4.81666 11.1313 4.81666 10.9843 4.96291C10.838 5.1099 10.838 5.3469 10.9843 5.4939L11.4695 5.97914L10.9843 6.46438C10.838 6.61137 10.838 6.84912 10.9843 6.99536C11.0578 7.06886 11.1538 7.10561 11.2498 7.10561C11.3458 7.10561 11.4418 7.06886 11.5145 6.99536L11.9998 6.51012L12.4842 6.99536C12.5577 7.06886 12.6537 7.10561 12.7497 7.10561C12.8457 7.10561 12.9417 7.06886 13.0145 6.99536C13.1615 6.84912 13.1615 6.61137 13.0145 6.46438L12.53 5.97914ZM12.4846 16.9769C12.6309 16.8299 12.8686 16.8299 13.0149 16.9769C13.1611 17.1231 13.1611 17.3608 13.0149 17.5078L12.5304 17.9931L13.0149 18.4783C13.1611 18.6253 13.1611 18.8631 13.0149 19.0093C12.9414 19.0828 12.8454 19.1188 12.7494 19.1188C12.6541 19.1188 12.5581 19.0828 12.4846 19.0093L11.9994 18.5241L11.5149 19.0093C11.4414 19.0828 11.3454 19.1188 11.2494 19.1188C11.1541 19.1188 11.0581 19.0828 10.9846 19.0093C10.8384 18.8631 10.8384 18.6253 10.9846 18.4783L11.4691 17.9931L10.9846 17.5078C10.8384 17.3608 10.8384 17.1231 10.9846 16.9769C11.1309 16.8299 11.3686 16.8299 11.5149 16.9769L11.9994 17.4621L12.4846 16.9769Z" fill="black"/>
</svg>

<svg width="24" height="24" viewBox="0 0 24 24" fill="none" xmlns="http://www.w3.org/2000/svg"><path fill-rule="evenodd" clip-rule="evenodd" d="M17.25 15.74a3.754 3.754 0 0 1-3.75-3.754 3.753 3.753 0 0 1 3.75-3.754c2.07 0 3.75 1.681 3.75 3.754a3.754 3.754 0 0 1-3.75 3.755ZM12 20.247a2.249 2.249 0 0 1-2.25-2.253A2.248 2.248 0 0 1 12 15.74a2.248 2.248 0 0 1 2.25 2.252A2.249 2.249 0 0 1 12 20.246ZM6.75 15.74A3.754 3.754 0 0 1 3 11.986a3.753 3.753 0 0 1 3.75-3.754c2.07 0 3.75 1.681 3.75 3.754a3.754 3.754 0 0 1-3.75 3.755ZM12 3.727a2.248 2.248 0 0 1 2.25 2.252A2.249 2.249 0 0 1 12 8.232a2.249 2.249 0 0 1-2.25-2.253A2.248 2.248 0 0 1 12 3.727Zm10.402 2.267.45-1.336a.757.757 0 0 0-.18-.774l-2.58-2.583a.751.751 0 0 0-.772-.18l-1.343.45c-3.637-2.095-8.332-2.095-11.955 0l-1.35-.45a.755.755 0 0 0-.772.18L1.327 3.884a.757.757 0 0 0-.18.774l.45 1.344A11.935 11.935 0 0 0 0 11.986C0 18.608 5.385 24 12 24s12-5.392 12-12.014c0-2.11-.555-4.175-1.598-5.992ZM6.75 14.239a2.253 2.253 0 0 1 0-4.505 2.253 2.253 0 0 1 0 4.505ZM15 11.987a2.253 2.253 0 0 0 2.25 2.252 2.253 2.253 0 0 0 0-4.505A2.253 2.253 0 0 0 15 11.987Zm-2.47-6.008.485-.485a.375.375 0 1 0-.53-.531L12 5.448l-.486-.485a.375.375 0 0 0-.53.53l.486.486-.486.485a.376.376 0 0 0 .53.531L12 6.51l.484.485a.374.374 0 1 0 .53-.53l-.484-.486Zm-.045 10.998a.374.374 0 0 1 .53 0 .376.376 0 0 1 0 .53l-.485.486.485.485a.376.376 0 0 1-.266.64.373.373 0 0 1-.264-.109l-.486-.485-.484.485a.373.373 0 0 1-.53 0 .376.376 0 0 1 0-.53l.484-.486-.484-.485a.376.376 0 0 1 0-.531.374.374 0 0 1 .53 0l.484.485.486-.485Z" fill="currentColor"/></svg>
